X:1
T:Molecatcher
M:6/8
L:1/8
K:F
 z4 z B| cGA BBA| cGA B2 B| ccc BAG| FED C2 z| CDE F2 z| FGA B2 z|\
 c3/2 d/2 c BAG| F3- F2 z|
